neru-light-classic/32x32/devices/network-modem.svg

<?xml version="1.0" encoding="UTF-8" standalone="no"?>
<svg
   xmlns:dc="http://purl.org/dc/elements/1.1/"
   xmlns:cc="http://creativecommons.org/ns#"
   xmlns:rdf="http://www.w3.org/1999/02/22-rdf-syntax-ns#"
   xmlns:svg="http://www.w3.org/2000/svg"
   xmlns="http://www.w3.org/2000/svg"
   xmlns:sodipodi="http://sodipodi.sourceforge.net/DTD/sodipodi-0.dtd"
   xmlns:inkscape="http://www.inkscape.org/namespaces/inkscape"
   width="32"
   height="32"
   version="1"
   id="svg20"
   sodipodi:docname="network-modem.svg"
   inkscape:version="0.92.2 2405546, 2018-03-11">
  <metadata
     id="metadata26">
    <rdf:RDF>
      <cc:Work
         rdf:about="">
        <dc:format>image/svg+xml</dc:format>
        <dc:type
           rdf:resource="http://purl.org/dc/dcmitype/StillImage" />
      </cc:Work>
    </rdf:RDF>
  </metadata>
  <defs
     id="defs24" />
  <sodipodi:namedview
     pagecolor="#ffffff"
     bordercolor="#666666"
     borderopacity="1"
     objecttolerance="10"
     gridtolerance="10"
     guidetolerance="10"
     inkscape:pageopacity="0"
     inkscape:pageshadow="2"
     inkscape:window-width="1680"
     inkscape:window-height="972"
     id="namedview22"
     showgrid="false"
     inkscape:zoom="10.429825"
     inkscape:cx="-17.443351"
     inkscape:cy="14.927028"
     inkscape:window-x="0"
     inkscape:window-y="0"
     inkscape:window-maximized="1"
     inkscape:current-layer="svg20" />
  <path
     style="opacity:1;fill:#8e8e8e;fill-opacity:1;fill-rule:evenodd;stroke:none;stroke-width:1.03534329;stroke-linecap:round;stroke-linejoin:bevel;stroke-miterlimit:4;stroke-dasharray:none;stroke-dashoffset:0;stroke-opacity:1"
     d="M 7.4726562 1.8984375 C 4.3840054 1.8984375 1.8984375 4.3840054 1.8984375 7.4726562 L 1.8984375 16.179688 L 30.101562 16.179688 L 30.101562 7.4726562 C 30.101563 4.3840054 27.615995 1.8984375 24.527344 1.8984375 L 7.4726562 1.8984375 z "
     id="rect4497-3" />
  <rect
     style="fill:#e6e6e6;fill-opacity:1;stroke-width:0.75345427"
     width="12.808722"
     height="2.2603629"
     x="5.4516401"
     y="-10.72582"
     ry="1.1301814"
     transform="rotate(90)"
     id="rect4" />
  <path
     style="opacity:1;fill:#666666;fill-opacity:1;fill-rule:evenodd;stroke:none;stroke-width:1.03534329;stroke-linecap:round;stroke-linejoin:bevel;stroke-miterlimit:4;stroke-dasharray:none;stroke-dashoffset:0;stroke-opacity:1"
     d="M 30.101562 16.179688 L 1.8984375 16.179688 L 1.8984375 24.527344 C 1.8984375 27.615995 4.3840054 30.101562 7.4726562 30.101562 L 24.527344 30.101562 C 27.615995 30.101563 30.101562 27.615995 30.101562 24.527344 L 30.101562 16.179688 z "
     id="path4490" />
  <circle
     style="fill:#c0f957;stroke-width:0.75345427"
     cx="22.027634"
     cy="21.274179"
     r="2.2603629"
     id="circle10" />
  <circle
     style="fill:#91af5b;stroke-width:0.75345427"
     cx="16"
     cy="21.274179"
     r="2.2603629"
     id="circle14" />
</svg>

<svg xmlns="http://www.w3.org/2000/svg" width="32" height="32" version="1"><path d="M7.473 1.898a5.561 5.561 0 0 0-5.575 5.575v8.707h28.204V7.473a5.561 5.561 0 0 0-5.575-5.575H7.473z" fill="#8e8e8e" fill-rule="evenodd"/><rect width="12.809" height="2.26" x="5.452" y="-10.726" ry="1.13" transform="rotate(90)" fill="#e6e6e6"/><path d="M30.102 16.18H1.898v8.347a5.561 5.561 0 0 0 5.575 5.575h17.054a5.561 5.561 0 0 0 5.575-5.575V16.18z" fill="#666" fill-rule="evenodd"/><circle cx="22.028" cy="21.274" r="2.26" fill="#c0f957"/><circle cx="16" cy="21.274" r="2.26" fill="#91af5b"/></svg>
